src/components/Icon/assets/cancel-circle-filled.svg

<svg width="24" height="24" viewBox="0 0 24 24" fill="none" xmlns="http://www.w3.org/2000/svg">
<path fill-rule="evenodd" clip-rule="evenodd" d="M15.4406 16.8575L11.9996 13.4165L8.55961 16.8565L7.14361 15.4405L10.5836 12.0005L7.14261 8.55951L8.55861 7.14351L11.9996 10.5845L15.4406 7.14351L16.8566 8.55951L13.4156 12.0005L16.8566 15.4415L15.4406 16.8575ZM19.0796 4.91951C15.1856 1.02651 8.81461 1.02651 4.92061 4.91951C1.02661 8.81451 1.02661 15.1855 4.92061 19.0795C8.81461 22.9735 15.1856 22.9735 19.0796 19.0795C22.9736 15.1855 22.9736 8.81451 19.0796 4.91951V4.91951Z" fill="#65676A"/>
</svg>

<svg xmlns="http://www.w3.org/2000/svg" width="24" height="24" viewBox="0 0 24 24">
    <path fill="#65676A" fill-rule="evenodd" d="M15.44 16.858L12 13.416l-3.44 3.44-1.416-1.416 3.44-3.44-3.441-3.44 1.416-1.417 3.44 3.442 3.442-3.442 1.416 1.417L13.416 12l3.44 3.441-1.415 1.417zm3.64-11.939c-3.894-3.892-10.265-3.892-14.16 0-3.893 3.896-3.893 10.266 0 14.16 3.895 3.895 10.266 3.895 14.16 0 3.894-3.894 3.894-10.264 0-14.16z"/>
</svg>
